X:2339
T:Butchers Hornpipe. JB.12
M:3/2
L:1/8
Q:350
S:James Biggins MS, Leeds, 1779.
R:3/2 HP
O:England
A:Yorkshire
Z:vmp.Nick Barber & Chris Partington
K:Bb
BGFE DFEDC2Bc|(3edc (3dcAB2B,E DEFD|!
BGFE DFED CEDC|B,BAcB2B,E DEFD|!
|BABc BdcB AcBA|(3edc (3dcBc2CE DEFD|!
BABc BdcBAgfe|(3edc (3dcA B2B,E DEFD|!
|babf gfgd edcB|e2"cr"c3-c CE DEFD|!
babf gfgd Agfe|d2B3-B B,E DEFD|!
|GECE FDB,D GFED|CcBdc2CE DEFD|!
GECE FDB,D GFED|B,BAcB2B,E DEFD|!
|GABcd2b2AcBA|GcBdc2CE DEFD|!
GABcd2b2AcBA|B,BAcB2B,E DEFD|]


